X:1
T:Title
%%score { ( 1 3 ) | ( 2 4 ) }
L:1/8
Q:1/4=108
M:4/4
K:G
V:1 treble nm="Grand Piano"
V:3 treble 
V:2 treble 
V:4 treble 
V:1
 B2 B2 B2 A2 | c4 B4 | G2 F2 G2 [FA]2 | B6 z2 | B2 B2 B2 A2 | c4 B4 | %6
w: W.~H.~Doane * * *||||||
 [DGB]2 [B,DG]2 [CFA]2 [DFB]2 | [B,G]6 z2 | B2 d2 e2 d2 | [Ac]2 [FA]2 [Bd]2 [Ac]2 | B2 c2 d2 cB | %11
w: |||||
 B4 A4 | [DB]2 G2 G2 B2 | [GB]4 [FA]4 | [Ac]2 [FA]2 [FA]2 [Ac]2 | c4 B4 | d2 B2 B2 [=Fd]2 | %17
w: ||||||
 [Ed]4 [Ec]4 | [DB]2 [B,DG]2 [CFA]2 [DFB]2 | [B,G]6 z2 |] %20
w: |||
V:2
 [G,DG]2 [G,DG]2 [G,DG]2 [G,CG]2 | [G,EG]4 [G,DG]4 | [G,B,D]2 [A,CD]2 [G,B,D]2 [D,D]2 | %3
 [G,DG]6 z2 | [G,DG]2 [G,DG]2 [G,DG]2 [G,CG]2 | [G,EG]4 [G,DG]4 | D,2 D,2 D,2 D,2 | G,,6 z2 | %8
 [G,DG]2 [G,B,G]2 [G,CG]2 [G,B,G]2 | [D,D]2 [D,D]2 [D,D]2 [D,D]2 | %10
 [G,DG]2 [G,A,G]2 [G,B,G]2[K:bass] C,^C, | [D,G,D]4 [D,F,D]4 | %12
 [G,,G,]2[K:treble] [G,B,D]2 [B,D]2 [G,DG]2 | [D,D]4 [D,D]4 | [D,D]2 [D,D]2 [D,D]2 [F,D]2 | %15
 [G,EG]4 [G,DG]4 | [G,B,G]2 [G,DG]2 [G,DG]2[K:bass] [B,,G,]2 | [C,G,]4 [C,G,]4 | %18
 [D,G,]2 D,2 D,2 D,2 | G,,6 z2 |] %20
V:3
 x8 | x8 | x8 | x8 | x8 | x8 | x8 | x8 | x8 | x8 | z4 z2 E2 | x8 | x8 | x8 | x8 | x8 | x8 | x8 | %18
 x8 | x8 |] %20
V:4
 x8 | x8 | x8 | x8 | x8 | x8 | x8 | x8 | x8 | x8 | z4 z2[K:bass] G,2 | x8 | x2[K:treble] x6 | x8 | %14
 x8 | x8 | x6[K:bass] x2 | x8 | x8 | x8 |] %20

